X:1
T: Trip to the Isles
C: Gordon Harvey
R:Strathspey
Q: 128
K:D
M:4/4
L:1/16
A,2|D4 A,3D F3D F3A|d4 f3d d4 d3B|G4 B4 A3D d3A|F4 E4 E4 ((3G2F2E2)|
D4 A,3D F3D F3A|d4 f3d d4 d3B|G4 B4 A3F G3E|F4 D4 D4 ((3A,2B,2C2) |
D4 A,3D F3D F3A|d4 c3d e3d c3A|B4 G3B A3D F3D|G4 FG3 A,A,3 CE3|
D4 A,3D F3D F3A|d4 c3d e3d c3A|G4 B4 A3F G3E|F4 D4 D4 ((3e2f2g2) |
f4 fe3 da3 f3d|ce3 cA3 d3A F3D|G4 B4 AD3 d3A|F4 E4 E4 ((3e2f2g2) |
f4 fe3 da3 f3d|ce3 cA3 d3A F3D|G4 B4 A3F G3E|F4 D4 D4 ((3e2f2g2) |
((3f2g2a2) fd3 A3f dA3|Fd3 AF3 DD3 F3D|A,3D F3D AD3 FD3|B3A G3F E4 ((3e2f2g2) |
((3f2g2a2) ef3 de3 cd3|B3c d3B AD3 F3D|A,3D FA3 d3A GE3|F4 D4 D4||
